X:1
T:Title
%%score { ( 1 4 ) | ( 2 3 ) }
L:1/8
Q:1/4=113
M:6/8
K:D
V:1 treble nm="Grand Piano"
V:4 treble 
V:2 bass 
V:3 bass 
V:1
 [FA]2 [FA] [FA]2 [GB] | [FA]2 F E2 D | F3 [FA]3 | [Fd]6 | [DGB]2 [DGB] [DGB]2 [DAc] | %5
w: C.~Austin~Miles * * *|||||
 [DBd]2 [D^Ac] [DBd]2 [DGB] | [DFA]3 [A,DF]3 | [CE]6 | [EG]2 [EG] [EG]2 [DF] | [CE]3 [CE]3 | %10
w: |||||
 [CA]2 [CA] [CA]2 [EG] | F3 A3 | c2 c c3 | d2 c B2 c | A6- | A6 | A6 | [DGB]2 [DFA] [A,DF]3 | d6 | %19
w: |||||||||
 e2 d B3 | [Bd]2 [Bd] [Ac]2 [GB] | [FA]2 [GB] [FA]2 [DF] | [CE]3 A3 | A6 | A6 | %25
w: ||||||
 [DGB]2 [DFA] [A,DF]3 | d6 | e2 d B3 | [Bd]2 [Bd] [Ac]2 [GB] | [FA]2 [GB] [FA]2 [Ad] | [^Ge]3 c3 | %31
w: ||||||
 [Fd]6 |] %32
w: |
V:2
 [D,D]2 [D,D] [D,D]2 [D,D] | [D,D]2 [D,A,D] [G,A,C]2 [F,A,] | [D,A,D]3 [D,D]3 | [D,D]6 | %4
 G,2 G, G,2 G, | G,2 G, G,2 G, | D,3 F,3 | A,6 | [A,,A,]2 [A,,A,] [A,,A,]2 [A,,A,] | %9
 [A,,A,]3 [A,,A,]3 | [A,,A,]2 [A,,A,] [A,,A,]2 [C,A,] | D3 z3 | [E,A,E]2 [E,A,E] [E,A,E]3 | %13
 [E,^G,F]2 [E,G,E] [E,G,D]2 [E,G,E] | A,,3 G,3 | F,3 [E,C]3 | F6 | D,2 D, D,3 | F6 | %19
 [G,B,G]2 [G,B,G] [G,DG]3 | [G,D]2 [G,D][K:bass] [G,D]2 [G,D] | [D,D]2 [D,D] [D,D]2 [D,A,] | %22
 [A,,A,]3 [G,A,C]3 | [F,D]3 z3 | F6 | D,2 D, D,3 | F6 | [G,B,G]2 [G,B,G] [G,DG]3 | %28
 [G,D]2 [G,D][K:bass] [G,D]2 [G,D] | [D,D]2 [D,D] [D,D]2 [F,D] | [E,B,]3 [A,G]3 | [D,A,]6 |] %32
V:3
 x6 | x6 | x6 | x6 | x6 | x6 | x6 | x6 | x6 | x6 | x6 | [D,A,]3- [D,A,F]3 | x6 | x6 | x6 | x6 | %16
 z2 D, D,2 D, | x6 | z2 D, D,2 [D,A,] | x6 | x3[K:bass] x3 | x6 | x6 | A,3- [E,A,]3 | %24
 z2 D, D,2 D, | x6 | z2 D, D,2 [D,A,] | x6 | x3[K:bass] x3 | x6 | x6 | x6 |] %32
V:4
 x6 | x6 | x6 | x6 | x6 | x6 | x6 | x6 | x6 | x6 | x6 | x6 | x6 | x6 | [A,-C]3 [A,-C]3 | %15
 [A,D]3 G3 | z2 D D2 [DFA] | x6 | z2 A, A,2 [Fd] | x6 | x6 | x6 | x6 | z3 C3 | z2 D D2 [DFA] | x6 | %26
 z2 A, A,2 [Fd] | x6 | x6 | x6 | x6 | x6 |] %32

